X:1
T:Sheepskin and Bee's Wax
M:4/4
L:1/8
Z:David Clark x97xvp@stfx.ca
F:http://www.ibiblio.org/fiddlers/SHE_SHEN.htm 2010-2-1
K:Ador
A2 AA BAGB | AGAa gfef | g2 fd efed | Beed BAAG |
EA (3AAA BAGB | AGAa gfef | gefd efed Beed BAAB |]
a2 ab agga | bagf edef | gefd efed | Beed BAAB |
a2 ab agga | bagf edef | gefd efed | Beed BAAG |]
